X:1
T:Called to the Feast
T:Called to the Feast
T:Emund Simon Lorenz
T:J. E. Landor, 1882
T:Public Domain Courtesy of the Cyber Hymnal™
C:Emund Simon Lorenz
Z:Public Domain
Z:Courtesy of the Cyber Hymnal™
%%score ( 1 2 ) ( 3 4 )
L:1/8
Q:1/4=105
M:4/4
K:Eb
V:1 treble 
V:2 treble 
V:3 bass 
V:4 bass 
V:1
 [GB]2 [Ac]>[GB] [EG]2 [DF]>E | [DF]2 [DG]2 E4 | [Ec]2 [EB]>[Ec] [Ee]2 [Ed]>[Ec] | %3
w: 1.~Called to the feast by the|King are we,|Sit- ting, per- haps, where His|
w: 2.~Crowns on the Head where the|thorns have been;|Glor- i- fied He who once|
w: 3.~Like light- ning’s flash will that|in- stant show|Things hid- den long from both|
w: 4.~Joy- ful His eye on each|one shall rest|Who is in white wed- ding|
 [EB]2 [EG]2 [DF]4 | [GB]2 [Ac]>[GB] [EG]2 [DF]>E | [EA]2 [EB]2 [Ec]4 | [EB]3 [EG] [EG]2 [DF]2 | %7
w: peo- ple be;|How will it fare, then, with|thee and me|When the King comes|
w: died for men;|Splen- did the vi- sion be-|fore us then,|When the King comes|
w: friend and foe—|Just what we are ev- ery|one will know,|When the King comes|
w: gar- ments dressed;|Ah! well for us if we|stand the test,|When the King comes|
 E6 z2 ||"^Refrain" [DF]3 [DF] [DF]2 (E[DF]) | [EG]4 [EG] [GB]3 | [Ac]2 ([GB][Ac]) [ce]2 [Ac]2 | %11
w: in?||||
w: in.||||
w: in.||||
w: in.||||
 [GB]6 z2 | [Ge]2 [Ge]>[Ac] [GB]3 [EG] | [EA]2 [EB]2 [Ec]4 | [EB]3 [EG] [EG]2 [DF]2 | E6 z2 |] %16
w: |||||
w: |||||
w: |||||
w: |||||
V:2
 x15/2 E/ | x4 E4 | x8 | x8 | x15/2 E/ | x8 | x8 | E6 x2 || x6 E x | x8 | x8 | x8 | x8 | x8 | x8 | %15
 E6 x2 |] %16
V:3
 [E,E]2 [E,E]>[E,E] [E,B,]2 [E,A,]>[E,G,] | [B,,A,]2 [B,,B,]2 [E,G,]4 | %2
w: ~ ~ ~ ~ ~ ~|~ ~ ~|
 A,2 [G,B,]>A, [A,C]2 [A,B,]>A, | [E,G,]2 [E,B,]2 [B,,B,]4 | %4
w: ~ ~ ~ ~ ~ ~|~ ~ ~|
 [E,B,]2 [E,A,]>[E,B,] [E,B,]2 [E,A,]>[E,G,] | [C,A,]2 [B,,G,]2 [A,,A,]4 | %6
w: ~ ~ ~ ~ ~ ~|~ ~ ~|
 [B,,G,]3 [B,,B,] [B,,B,]2 [B,,A,]2 | [E,G,]6 z2 || [B,,B,]3 [B,,B,] (B,A,) (G,B,) | %9
w: ~ ~ ~ ~|~|When the King * comes *|
 [E,B,]4 [E,B,] [E,E]3 | [A,E]2 [A,E]2 [A,E]2 [A,E]2 | [E,E]6 z2 | %12
w: in, bro- ther,|When the King comes|in;|
 [E,B,]2 [E,B,]>[E,E] [E,E]3 [_D,B,] | [C,A,]2 [B,,G,]2 [A,,A,]4 | %14
w: How will it fare with|thee and me|
 [B,,G,]3 [B,,B,] [B,,B,]2 [B,,A,]2 | [E,G,]6 z2 |] %16
w: When the King comes|in?|
V:4
 x8 | x8 | A,2 A,/ x3 A,/ x2 | x8 | x8 | x8 | x8 | x8 || x4 B,,2 B,,2 | x8 | x8 | x8 | x8 | x8 | %14
 x8 | x8 |] %16

